img/modern.svg

<svg width="64" height="64" viewBox="0 0 64 64" fill="none" xmlns="http://www.w3.org/2000/svg">
<path d="M58.9153 50.8843H21.4143V34.5533C24.2773 32.2803 26.1373 28.7963 26.1983 24.8793H44.0283V26.4463C44.0283 27.2753 44.7003 27.9463 45.5283 27.9463C46.3563 27.9463 47.0283 27.2753 47.0283 26.4463V24.8793H47.4173C53.4863 24.8793 58.4243 19.9413 58.4243 13.8723C58.4243 7.80326 53.4853 2.86426 47.4163 2.86426H15.1913C14.9193 2.86426 14.6513 2.88026 14.3853 2.90026C14.1223 2.88126 13.8583 2.86426 13.5913 2.86426C6.63928 2.86426 0.983281 8.52026 0.983281 15.4723V24.6793C0.983281 28.9683 3.14028 32.7583 6.42128 35.0373V50.8833H5.08528C2.41328 50.8833 0.238281 53.0573 0.238281 55.7303V59.6353C0.238281 60.4633 0.909281 61.1353 1.73828 61.1353H62.2613C63.0893 61.1353 63.7613 60.4633 63.7613 59.6353V55.7303C63.7623 53.0583 61.5883 50.8843 58.9153 50.8843ZM3.98228 24.6803V15.4733C3.98228 10.1753 8.29328 5.86526 13.5903 5.86526C13.7923 5.86526 13.9913 5.88126 14.2863 5.90226C14.3603 5.90626 14.4363 5.90726 14.5123 5.90126C14.7373 5.88326 14.9613 5.86626 15.1913 5.86626H47.4163C51.8313 5.86626 55.4233 9.45826 55.4233 13.8733C55.4233 18.2883 51.8313 21.8803 47.4163 21.8803H24.6993C23.8703 21.8803 23.1993 22.5513 23.1993 23.3803V24.6813C23.1993 29.9793 18.8883 34.2893 13.5913 34.2893C8.29428 34.2893 3.98228 29.9783 3.98228 24.6803ZM9.42128 36.5643C10.7293 37.0243 12.1283 37.2883 13.5913 37.2883C15.2993 37.2883 16.9273 36.9453 18.4143 36.3273V50.8843H9.42128V36.5643ZM60.7623 58.1363H3.23828V55.7303C3.23828 54.7113 4.06728 53.8833 5.08528 53.8833H58.9153C59.9343 53.8833 60.7623 54.7113 60.7623 55.7303V58.1363Z" fill="white"/>
<path d="M41.4396 36.55C41.1066 36.47 40.7286 36.387 40.2366 36.33L40.0496 35.471C39.8736 34.66 39.0676 34.146 38.2666 34.323C37.4556 34.499 36.9426 35.297 37.1186 36.106L39.6226 47.655C39.6246 47.664 39.6266 47.672 39.6286 47.68V47.681V47.682C39.6646 47.845 39.7296 47.996 39.8146 48.136C39.8216 48.148 39.8266 48.16 39.8346 48.172C39.9166 48.299 40.0186 48.409 40.1326 48.506C40.1526 48.522 40.1696 48.537 40.1896 48.552C40.3056 48.641 40.4326 48.713 40.5726 48.765C40.5936 48.773 40.6156 48.778 40.6366 48.785C40.7826 48.832 40.9336 48.864 41.0946 48.864H49.9596C49.9606 48.864 49.9606 48.864 49.9606 48.864C49.9616 48.864 49.9616 48.864 49.9616 48.864C50.1216 48.864 50.2726 48.832 50.4156 48.786C50.4386 48.778 50.4616 48.773 50.4846 48.765C50.6216 48.713 50.7476 48.642 50.8626 48.555C50.8836 48.538 50.9036 48.521 50.9256 48.503C51.0376 48.408 51.1376 48.301 51.2176 48.177C51.2276 48.161 51.2346 48.145 51.2436 48.128C51.3226 47.995 51.3846 47.852 51.4196 47.696C51.4206 47.691 51.4246 47.687 51.4256 47.682L51.4286 47.668C51.4286 47.666 51.4296 47.665 51.4296 47.664L53.9376 36.106C54.1136 35.296 53.5996 34.498 52.7906 34.322C51.9806 34.148 51.1826 34.661 51.0066 35.469L50.7316 36.737C50.2206 36.709 49.9076 36.636 49.5426 36.549C48.9866 36.416 48.3566 36.265 47.1666 36.265C45.9766 36.265 45.3466 36.416 44.7916 36.549C44.3216 36.662 43.9506 36.751 43.1146 36.751C42.2786 36.751 41.9086 36.662 41.4396 36.55ZM45.4886 39.467C45.9576 39.354 46.3286 39.265 47.1636 39.265C47.9996 39.265 48.3706 39.354 48.8406 39.467C49.1846 39.549 49.5736 39.634 50.0886 39.691L48.7496 45.864H42.3036L40.9266 39.51C41.4416 39.631 42.0506 39.752 43.1126 39.752C44.3026 39.751 44.9326 39.6 45.4886 39.467Z" fill="white"/>
<path d="M47.0273 32.8612V30.4902C47.0273 29.6612 46.3553 28.9902 45.5273 28.9902C44.6993 28.9902 44.0273 29.6612 44.0273 30.4902V32.8622C44.0273 33.6902 44.6993 34.3622 45.5273 34.3622C46.3553 34.3622 47.0273 33.6892 47.0273 32.8612Z" fill="white"/>
<path d="M11.5 27.4328C12.329 27.4328 13 26.7618 13 25.9328V14.2188C13 13.3898 12.329 12.7188 11.5 12.7188C10.671 12.7188 10 13.3898 10 14.2188V25.9317C10 26.7607 10.671 27.4328 11.5 27.4328Z" fill="white"/>
<path d="M16.333 27.4328C17.162 27.4328 17.833 26.7618 17.833 25.9328V14.2188C17.833 13.3898 17.162 12.7188 16.333 12.7188C15.504 12.7188 14.833 13.3898 14.833 14.2188V25.9317C14.833 26.7607 15.505 27.4328 16.333 27.4328Z" fill="white"/>
</svg>

<svg xmlns="http://www.w3.org/2000/svg" xmlns:xlink="http://www.w3.org/1999/xlink" version="1.1" x="0px" y="0px" viewBox="0 0 64 64" enable-background="new 0 0 64 64" xml:space="preserve" style="max-width:100%" height="100%"><path d="M58.915,50.884H21.414V34.553c2.863-2.273,4.723-5.757,4.784-9.674h17.83v1.567c0,0.829,0.672,1.5,1.5,1.5  s1.5-0.671,1.5-1.5v-1.567h0.389c6.069,0,11.007-4.938,11.007-11.007S53.485,2.864,47.416,2.864H15.191  c-0.272,0-0.54,0.016-0.806,0.036c-0.263-0.019-0.527-0.036-0.794-0.036c-6.952,0-12.608,5.656-12.608,12.608v9.207  c0,4.289,2.157,8.079,5.438,10.358v15.846H5.085c-2.672,0-4.847,2.174-4.847,4.847v3.905c0,0.828,0.671,1.5,1.5,1.5h60.523  c0.828,0,1.5-0.672,1.5-1.5V55.73C63.762,53.058,61.588,50.884,58.915,50.884z M3.982,24.68v-9.207c0-5.298,4.311-9.608,9.608-9.608  c0.202,0,0.401,0.016,0.696,0.037c0.074,0.004,0.15,0.005,0.226-0.001c0.225-0.018,0.449-0.035,0.679-0.035h32.225  c4.415,0,8.007,3.592,8.007,8.007s-3.592,8.007-8.007,8.007H24.699c-0.829,0-1.5,0.671-1.5,1.5v1.301  c0,5.298-4.311,9.608-9.608,9.608S3.982,29.978,3.982,24.68z M9.421,36.564c1.308,0.46,2.707,0.724,4.17,0.724  c1.708,0,3.336-0.343,4.823-0.961v14.557H9.421V36.564z M60.762,58.136H3.238V55.73c0-1.019,0.829-1.847,1.847-1.847h53.83  c1.019,0,1.847,0.828,1.847,1.847V58.136z" style="" fill="currentColor"></path><path d="M41.44,36.55c-0.333-0.08-0.711-0.163-1.203-0.22l-0.187-0.859c-0.176-0.811-0.982-1.325-1.783-1.148  c-0.811,0.176-1.324,0.974-1.148,1.783l2.504,11.549c0.002,0.009,0.004,0.017,0.006,0.025v0.001v0.001  c0.036,0.163,0.101,0.314,0.186,0.454c0.007,0.012,0.012,0.024,0.02,0.036c0.082,0.127,0.184,0.237,0.298,0.334  c0.02,0.016,0.037,0.031,0.057,0.046c0.116,0.089,0.243,0.161,0.383,0.213c0.021,0.008,0.043,0.013,0.064,0.02  c0.146,0.047,0.297,0.079,0.458,0.079h8.865l0,0c0.001,0,0.001,0,0.001,0c0.001,0,0.001,0,0.001,0c0.16,0,0.311-0.032,0.454-0.078  c0.023-0.008,0.046-0.013,0.069-0.021c0.137-0.052,0.263-0.123,0.378-0.21c0.021-0.017,0.041-0.034,0.063-0.052  c0.112-0.095,0.212-0.202,0.292-0.326c0.01-0.016,0.017-0.032,0.026-0.049c0.079-0.133,0.141-0.276,0.176-0.432  c0.001-0.005,0.005-0.009,0.006-0.014l0.003-0.014c0-0.002,0.001-0.003,0.001-0.004l2.508-11.558  c0.176-0.81-0.338-1.608-1.147-1.784c-0.81-0.174-1.608,0.339-1.784,1.147l-0.275,1.268c-0.511-0.028-0.824-0.101-1.189-0.188  c-0.556-0.133-1.186-0.284-2.376-0.284s-1.82,0.151-2.375,0.284c-0.47,0.113-0.841,0.202-1.677,0.202  C42.279,36.751,41.909,36.662,41.44,36.55z M45.489,39.467c0.469-0.113,0.84-0.202,1.675-0.202c0.836,0,1.207,0.089,1.677,0.202  c0.344,0.082,0.733,0.167,1.248,0.224l-1.339,6.173h-6.446l-1.377-6.354c0.515,0.121,1.124,0.242,2.186,0.242  C44.303,39.751,44.933,39.6,45.489,39.467z" style="" fill="currentColor"></path><path d="M47.027,32.861V30.49c0-0.829-0.672-1.5-1.5-1.5s-1.5,0.671-1.5,1.5v2.372c0,0.828,0.672,1.5,1.5,1.5  S47.027,33.689,47.027,32.861z" style="" fill="currentColor"></path><path d="M11.5,27.433c0.829,0,1.5-0.671,1.5-1.5V14.219c0-0.829-0.671-1.5-1.5-1.5s-1.5,0.671-1.5,1.5v11.713  C10,26.761,10.671,27.433,11.5,27.433z" style="" fill="currentColor"></path><path d="M16.333,27.433c0.829,0,1.5-0.671,1.5-1.5V14.219c0-0.829-0.671-1.5-1.5-1.5s-1.5,0.671-1.5,1.5v11.713  C14.833,26.761,15.505,27.433,16.333,27.433z" style="" fill="currentColor"></path></svg>
